!!!SOCIAL_FUNCTION:	memorial ceremony songs
!!!PDT:	1932
!!!OTL: No_31_The_Four_Corners_of_the_Earth.krn
!!!REG: Southwest
!!!LANG: Non-Tone
!!!LING_GROUP: Yuman-Cochimi
**kern	**kern
*staff2	*staff1
=1-	=1-
*clefF4	*clefF4
*k[f#c#g#]	*k[f#c#g#]
*M3/4	*M3/4
8GG#/L	4A\
8GG#/J	.
8GG#/L	8B\L
8GG#/J	8G#\J
8GG#/L	16A\
.	16r
8GG#/J	8A\
=2||	=2||
*M2/4	*M2/4
8GG#/L	8c#\L
8GG#/J	8c#\J
8GG#/L	8B\L
8GG#/J	8A\J
=3	=3
2r	8.A\L
.	16F#\Jk
.	16F#\
.	16r
.	8F#\
=4	=4
2r	8A\L
.	8A\J
.	8F#\L
.	8A\J
=5	=5
2r	8.E/L
.	16C#/Jk
.	16C#/
.	16r
.	8C#/
=6	=6
2r	8C#/L
.	8C#/J
.	8C#/L
.	8C#/J
=7	=7
2r	8E\L
.	8E\J
.	8r
.	8E\
=8	=8
2r	8A\L
.	8A\J
.	8F#\L
.	8A\J
=9	=9
2r	8.E/L
.	16C#/Jk
.	16C#/
.	16r
.	8C#/
=10	=10
2r	8C#/L
.	8C#/J
.	8C#/L
.	8C#/J
=11	=11
2r	8C#/L
.	8C#/J
.	4r
=12!|:	=12!|:
2r	8A\L
.	8A\J
.	8A\L
.	8A\J
=13	=13
2r	8.A\L
.	16G#\Jk
.	16A\
.	16r
.	8A\
==:|!	==:|!
*-	*-
